; generated by PrusaSlicer 2.6.1 on 2023-11-09 at 15:29:42 UTC

; 

; external perimeters extrusion width = 0.42mm
; perimeters extrusion width = 0.44mm
; infill extrusion width = 0.44mm
; solid infill extrusion width = 0.44mm
; top infill extrusion width = 0.40mm
; first layer extrusion width = 0.42mm

M201 X500 Y500 Z100 E5000 ; sets maximum accelerations, mm/sec^2
M203 X500 Y500 Z10 E60 ; sets maximum feedrates, mm / sec
M204 P500 R1000 T500 ; sets acceleration (P, T) and retract acceleration (R), mm/sec^2
M205 X8.00 Y8.00 Z0.40 E5.00 ; sets the jerk limits, mm/sec
M205 S0 T0 ; sets the minimum extruding and travel feed rate, mm/sec
;TYPE:Custom
G90 ; use absolute coordinates
M83 ; extruder relative mode
M104 S150 ; set temporary nozzle temp to prevent oozing during homing and auto bed leveling
M140 S100 ; set final bed temp
G4 S30 ; allow partial nozzle warmup
G28 ; home all axis
G29 ; auto bed levelling
G1 Z50 F240
G1 X2.0 Y10 F3000
M104 S250 ; set final nozzle temp
M190 S100 ; wait for bed temp to stabilize
M109 S250 ; wait for nozzle temp to stabilize
G1 Z0.28 F240
G92 E0
G1 X2.0 Y140 E10 F1500 ; prime the nozzle
G1 X2.3 Y140 F5000
G92 E0
G1 X2.3 Y10 E10 F1200 ; prime the nozzle
G92 E0
G21 ; set units to millimeters
G90 ; use absolute coordinates
M83 ; use relative distances for extrusion
; Filament gcode
M107
;LAYER_CHANGE
;Z:0.2
;HEIGHT:0.2
;BEFORE_LAYER_CHANGE
G92 E0
;0.2


G1 E-5 F3600
G1 Z.2 F9000
;AFTER_LAYER_CHANGE
;0.2
G1 X67.149 Y45.334
G1 E5 F2400
M204 P500
;TYPE:Skirt/Brim
;WIDTH:0.42
G1 F1200
G1 X68.239 Y44.12 E.05116
G1 X69.771 Y43.559 E.05115
G1 X70.801 Y43.607 E.03233
G1 X164.701 Y62.572 E3.00362
G1 X165.752 Y62.88 E.03434
G1 X166.837 Y63.343 E.03699
G1 X168.199 Y64.181 E.05014
G1 X169.628 Y65.485 E.06066
G1 X170.584 Y66.764 E.05007
G1 X171.433 Y68.503 E.06068
G1 X171.852 Y70.048 E.05019
G1 X172.001 Y71.972 E.06051
G1 X171.866 Y73.358 E.04366
G1 X154.095 Y174.143 E3.20879
G1 X153.877 Y175.071 E.02989
G1 X153.483 Y176.19 E.0372
G1 X152.729 Y177.608 E.05036
G1 X151.518 Y179.115 E.06062
G1 X150.637 Y179.899 E.03698
G1 X149.669 Y180.565 E.03684
G1 X148.616 Y181.108 E.03715
G1 X147.513 Y181.511 E.03682
G1 X146.37 Y181.774 E.03677
G1 X144.931 Y181.902 E.0453
G1 X70.132 Y181.902 E2.34527
G1 X68.549 Y181.508 E.05115
G1 X67.335 Y180.418 E.05116
G1 X66.755 Y178.525 E.06208
G1 X66.755 Y46.917 E4.12648
G1 X67.134 Y45.392 E.04927
; printing object Atreus62_base_right.stl id:0 copy 0
G1 E-3.5 F3600
;WIPE_START
G1 F7200
G1 X68.239 Y44.12 E-.80034
G1 X69.622 Y43.614 E-.69966
;WIPE_END
G1 X71.196 Y48.217 F9000
G1 E5 F2400
;TYPE:Perimeter
;WIDTH:0.419999
G1 F1200
G1 X163.814 Y66.929 E2.96264
G1 X164.423 Y67.124 E.02005
G1 X165.021 Y67.409 E.02077
G1 X165.503 Y67.712 E.01785
G1 X166.006 Y68.128 E.02047
G1 X166.471 Y68.635 E.02157
G1 X166.836 Y69.157 E.01997
G1 X167.098 Y69.639 E.0172
G1 X167.325 Y70.221 E.01959
G1 X167.47 Y70.774 E.01793
G1 X167.551 Y71.394 E.0196
G1 X167.56 Y71.969 E.01803
G1 X167.487 Y72.62 E.02054
G1 X149.727 Y173.339 E3.20669
G1 X149.573 Y173.974 E.02049
G1 X149.352 Y174.556 E.01952
G1 X149.06 Y175.104 E.01947
G1 X148.702 Y175.612 E.01949
G1 X148.284 Y176.07 E.01944
G1 X147.81 Y176.473 E.01951
G1 X147.291 Y176.813 E.01945
G1 X146.732 Y177.085 E.01949
G1 X146.144 Y177.286 E.01948
G1 X145.535 Y177.411 E.01949
G1 X144.89 Y177.461 E.02028
G1 X71.196 Y177.461 E2.31062
G1 X71.196 Y48.277 E4.05047
G1 X70.819 Y47.757 F9000
G1 F1200
G1 X163.863 Y66.549 E2.97623
G1 X164.51 Y66.75 E.02124
G1 X165.118 Y67.026 E.02094
G1 X165.687 Y67.376 E.02095
G1 X166.209 Y67.795 E.02099
G1 X166.673 Y68.276 E.02095
G1 X167.074 Y68.812 E.02099
G1 X167.329 Y69.261 E.01619
G1 X167.548 Y69.743 E.0166
G1 X167.741 Y70.313 E.01887
G1 X167.863 Y70.863 E.01766
G1 X167.928 Y71.388 E.01659
G1 X167.937 Y71.988 E.01881
G1 X167.86 Y72.673 E.02161
G1 X150.096 Y173.416 E3.20745
G1 X149.934 Y174.086 E.02161
G1 X149.696 Y174.712 E.021
G1 X149.382 Y175.302 E.02096
G1 X148.997 Y175.849 E.02097
G1 X148.546 Y176.342 E.02095
G1 X148.037 Y176.775 E.02095
G1 X147.478 Y177.142 E.02097
G1 X146.876 Y177.435 E.02099
G1 X146.243 Y177.65 E.02096
G1 X145.588 Y177.785 E.02097
G1 X144.905 Y177.838 E.02148
G1 X70.819 Y177.838 E2.32291
G1 X70.819 Y47.817 E4.07671
G1 X70.442 Y47.296 F9000
;TYPE:External perimeter
G1 F1200
G1 X163.956 Y66.183 E2.99127
G1 X164.644 Y66.396 E.02258
G1 X165.296 Y66.692 E.02245
G1 X165.905 Y67.067 E.02242
G1 X166.464 Y67.516 E.02248
G1 X166.961 Y68.031 E.02244
G1 X167.39 Y68.605 E.02247
G1 X167.744 Y69.228 E.02247
G1 X167.984 Y69.809 E.01971
G1 X168.142 Y70.353 E.01776
G1 X168.244 Y70.865 E.01637
G1 X168.305 Y71.383 E.01635
G1 X168.314 Y72.006 E.01954
G1 X168.233 Y72.727 E.02275
G1 X150.466 Y173.493 E3.20818
G1 X150.295 Y174.198 E.02275
G1 X150.04 Y174.868 E.02248
G1 X149.704 Y175.5 E.02244
G1 X149.291 Y176.086 E.02248
G1 X148.809 Y176.614 E.02242
G1 X148.263 Y177.078 E.02247
G1 X147.664 Y177.47 E.02245
G1 X147.02 Y177.784 E.02246
G1 X146.342 Y178.015 E.02246
G1 X145.641 Y178.159 E.02244
G1 X144.919 Y178.215 E.02271
G1 X70.442 Y178.215 E2.33517
G1 X70.442 Y47.356 E4.10299
G1 X70.796 Y47.482 F9000
G1 E-3.5 F3600
;WIPE_START
G1 F7200
G1 X73.538 Y47.979 E-1.5
;WIPE_END
G1 X165.789 Y72.033 F9000
G1 E5 F2400
;TYPE:Perimeter
G1 F1200
G1 X165.729 Y72.137 E.00376
G1 X165.395 Y72.5 E.01547
G1 X164.958 Y72.795 E.01653
G1 X164.504 Y72.959 E.01514
G1 X164.014 Y73.023 E.01549
G1 X163.49 Y72.968 E.01652
G1 X163.037 Y72.801 E.01514
G1 X162.621 Y72.535 E.01548
G1 X162.267 Y72.175 E.01583
G1 X162.015 Y71.737 E.01584
G1 X161.867 Y71.267 E.01545
G1 X161.83 Y70.74 E.01656
G1 X161.916 Y70.265 E.01514
G1 X162.105 Y69.81 E.01545
G1 X162.415 Y69.383 E.01654
G1 X162.786 Y69.074 E.01514
G1 X163.253 Y68.838 E.01641
G1 X163.774 Y68.718 E.01676
G1 X164.218 Y68.721 E.01392
G1 X164.699 Y68.828 E.01545
G1 X165.157 Y69.047 E.01592
G1 X165.542 Y69.371 E.01578
G1 X165.842 Y69.762 E.01545
G1 X166.056 Y70.244 E.01654
G1 X166.139 Y70.72 E.01515
G1 X166.109 Y71.248 E.01658
G1 X165.971 Y71.72 E.01542
G1 X165.819 Y71.981 E.00947
G1 X165.471 Y71.839 F9000
G1 F1200
G1 X165.165 Y72.201 E.01486
G1 X164.814 Y72.447 E.01344
G1 X164.438 Y72.587 E.01258
G1 X164.03 Y72.646 E.01293
G1 X163.604 Y72.608 E.01341
G1 X163.226 Y72.474 E.01257
G1 X162.875 Y72.257 E.01294
G1 X162.573 Y71.954 E.01341
G1 X162.369 Y71.608 E.01259
G1 X162.241 Y71.217 E.0129
G1 X162.204 Y70.79 E.01344
G1 X162.27 Y70.394 E.01259
G1 X162.423 Y70.012 E.0129
G1 X162.669 Y69.662 E.01341
G1 X162.974 Y69.401 E.01259
G1 X163.355 Y69.201 E.01349
G1 X163.79 Y69.094 E.01405
G1 X164.152 Y69.092 E.01135
G1 X164.671 Y69.224 E.01679
G1 X164.943 Y69.358 E.00951
G1 X165.253 Y69.613 E.01259
G1 X165.508 Y69.937 E.01293
G1 X165.688 Y70.325 E.01341
G1 X165.762 Y70.72 E.0126
G1 X165.741 Y71.167 E.01403
G1 X165.637 Y71.545 E.01229
G1 X165.501 Y71.787 E.0087
G1 X165.151 Y71.652 F9000
;TYPE:External perimeter
G1 F1200
G1 X164.935 Y71.903 E.01038
G1 X164.67 Y72.098 E.01032
G1 X164.373 Y72.216 E.01002
G1 X164.046 Y72.269 E.01039
G1 X163.718 Y72.249 E.0103
G1 X163.414 Y72.148 E.01004
G1 X163.13 Y71.979 E.01036
G1 X162.891 Y71.752 E.01034
G1 X162.724 Y71.479 E.01003
G1 X162.615 Y71.167 E.01036
G1 X162.578 Y70.84 E.01032
G1 X162.624 Y70.523 E.01004
G1 X162.742 Y70.214 E.01037
G1 X162.923 Y69.94 E.0103
G1 X163.163 Y69.727 E.01006
G1 X163.457 Y69.564 E.01054
G1 X163.806 Y69.471 E.01132
G1 X164.087 Y69.464 E.00881
G1 X164.527 Y69.573 E.01421
G1 X164.713 Y69.657 E.0064
G1 X164.964 Y69.856 E.01004
G1 X165.173 Y70.112 E.01036
G1 X165.32 Y70.406 E.01031
G1 X165.384 Y70.867 E.01459
G1 X165.32 Y71.324 E.01447
G1 X165.178 Y71.599 E.0097
G1 X165.303 Y71.946 F9000
G1 E-3.5 F3600
;WIPE_START
G1 F7200
G1 X164.935 Y71.903 E-.18486
G1 X164.67 Y72.098 E-.15628
G1 X164.373 Y72.216 E-.1518
G1 X164.046 Y72.269 E-.15735
G1 X163.718 Y72.249 E-.15609
G1 X163.414 Y72.148 E-.15216
G1 X163.13 Y71.979 E-.15698
G1 X162.891 Y71.752 E-.15657
G1 X162.724 Y71.479 E-.15201
G1 X162.671 Y71.328 E-.0759
;WIPE_END
G1 X146.8 Y174.959 F9000
G1 E5 F2400
;TYPE:Perimeter
G1 F1200
G1 X146.723 Y175.041 E.00353
G1 X146.314 Y175.314 E.01542
G1 X145.86 Y175.478 E.01514
G1 X145.371 Y175.542 E.01546
G1 X144.846 Y175.487 E.01655
G1 X144.393 Y175.32 E.01514
G1 X143.977 Y175.054 E.01548
G1 X143.611 Y174.675 E.01652
G1 X143.371 Y174.256 E.01514
G1 X143.223 Y173.786 E.01545
G1 X143.186 Y173.26 E.01653
G1 X143.272 Y172.785 E.01514
G1 X143.461 Y172.329 E.01548
G1 X143.722 Y171.95 E.01443
G1 X144.102 Y171.618 E.01582
G1 X144.543 Y171.378 E.01574
G1 X145.13 Y171.237 E.01893
G1 X145.574 Y171.24 E.01392
G1 X146.055 Y171.347 E.01545
G1 X146.529 Y171.578 E.01653
G1 X146.898 Y171.89 E.01515
G1 X147.198 Y172.282 E.01548
G1 X147.413 Y172.763 E.01652
G1 X147.495 Y173.239 E.01514
G1 X147.473 Y173.732 E.01547
G1 X147.327 Y174.239 E.01654
G1 X147.084 Y174.656 E.01513
G1 X146.841 Y174.915 E.01114
G1 X146.533 Y174.698 F9000
G1 F1200
G1 X146.17 Y174.966 E.01415
G1 X145.678 Y175.127 E.01623
G1 X145.386 Y175.165 E.00923
G1 X144.96 Y175.127 E.01341
G1 X144.581 Y174.993 E.0126
G1 X144.231 Y174.776 E.01291
G1 X143.929 Y174.473 E.01341
G1 X143.725 Y174.127 E.01259
G1 X143.597 Y173.736 E.0129
G1 X143.56 Y173.309 E.01344
G1 X143.626 Y172.914 E.01256
G1 X143.779 Y172.531 E.01293
G1 X143.996 Y172.209 E.01217
G1 X144.33 Y171.92 E.01385
G1 X144.711 Y171.72 E.01349
G1 X145.146 Y171.613 E.01405
G1 X145.508 Y171.611 E.01135
G1 X145.911 Y171.696 E.01291
G1 X146.299 Y171.877 E.01342
G1 X146.609 Y172.132 E.01259
G1 X146.864 Y172.456 E.01293
G1 X147.044 Y172.844 E.01341
G1 X147.118 Y173.239 E.0126
G1 X147.104 Y173.651 E.01293
G1 X146.993 Y174.064 E.01341
G1 X146.796 Y174.414 E.01259
G1 X146.574 Y174.654 E.01025
G1 X146.263 Y174.443 F9000
;TYPE:External perimeter
G1 F1200
G1 X146.026 Y174.617 E.00922
G1 X145.613 Y174.756 E.01366
G1 X145.402 Y174.788 E.00669
G1 X145.074 Y174.768 E.0103
G1 X144.77 Y174.667 E.01004
G1 X144.486 Y174.498 E.01036
G1 X144.247 Y174.271 E.01034
G1 X144.08 Y173.998 E.01003
G1 X143.971 Y173.686 E.01036
G1 X143.934 Y173.359 E.01032
G1 X143.98 Y173.043 E.01001
G1 X144.098 Y172.733 E.0104
G1 X144.27 Y172.469 E.00988
G1 X144.519 Y172.246 E.01048
G1 X144.813 Y172.083 E.01054
G1 X145.162 Y171.99 E.01132
G1 X145.443 Y171.983 E.00881
G1 X145.768 Y172.045 E.01037
G1 X146.069 Y172.176 E.01029
G1 X146.32 Y172.375 E.01004
G1 X146.529 Y172.631 E.01036
G1 X146.676 Y172.925 E.01031
G1 X146.74 Y173.239 E.01005
G1 X146.736 Y173.57 E.01038
G1 X146.659 Y173.89 E.01032
G1 X146.507 Y174.171 E.01002
G1 X146.303 Y174.398 E.00957
G1 X146.326 Y174.73 F9000
G1 E-3.5 F3600
;WIPE_START
G1 F7200
G1 X146.026 Y174.617 E-.16773
G1 X145.613 Y174.756 E-.20699
G1 X145.402 Y174.788 E-.10137
G1 X145.074 Y174.768 E-.15609
G1 X144.77 Y174.667 E-.15216
G1 X144.486 Y174.498 E-.15698
G1 X144.247 Y174.271 E-.15657
G1 X144.08 Y173.998 E-.15201
G1 X143.971 Y173.686 E-.15698
G1 X143.949 Y173.491 E-.09312
;WIPE_END
G1 X164.07 Y67.135 F9000
G1 E5 F2400
;TYPE:Solid infill
;WIDTH:0.420161
G1 F1200
G1 X166.931 Y69.995 E.12689
G1 X167.026 Y70.226 E.00783
G1 X167.174 Y70.772 E.01774
G1 X163.574 Y67.172 E.1597
G1 X162.905 Y67.037 E.02141
G1 X164.311 Y68.443 E.06237
G1 X164.007 Y68.417 E.00957
G1 X163.766 Y68.431 E.00757
G1 X162.237 Y66.902 E.06783
G1 X161.568 Y66.767 E.02141
G1 X163.322 Y68.52 E.07779
G1 X163.169 Y68.56 E.00496
G1 X162.929 Y68.661 E.00817
G1 X160.9 Y66.632 E.09001
G1 X160.231 Y66.497 E.02141
G1 X162.592 Y68.857 E.10471
G1 X162.298 Y69.097 E.0119
G1 X159.563 Y66.362 E.12133
G1 X158.894 Y66.227 E.02141
G1 X162.044 Y69.376 E.13971
G1 X161.836 Y69.702 E.01213
G1 X158.226 Y66.092 E.16014
G1 X157.557 Y65.957 E.02141
G1 X161.676 Y70.075 E.1827
G1 X161.571 Y70.504 E.01385
G1 X156.889 Y65.822 E.2077
G1 X156.22 Y65.687 E.02141
G1 X161.743 Y71.209 E.24498
G1 E-3.5 F3600
;WIPE_START
G1 F7200
G1 X159.51 Y68.976 E-1.5
;WIPE_END
G1 X166.196 Y70.327 F9000
G1 E5 F2400
G1 F1200
G1 X167.261 Y71.392 E.04724
G1 X167.269 Y71.934 E.017
G1 X166.421 Y71.086 E.03762
G1 X166.342 Y71.54 E.01445
G1 X167.217 Y72.416 E.03884
G1 X167.146 Y72.878 E.01466
G1 X166.192 Y71.924 E.04232
G1 X165.996 Y72.261 E.01223
G1 X167.066 Y73.332 E.04749
G1 X166.986 Y73.785 E.01443
G1 X165.756 Y72.555 E.05456
G1 X165.474 Y72.806 E.01184
G1 X166.906 Y74.239 E.06355
G1 X166.826 Y74.692 E.01443
G1 X165.151 Y73.017 E.0743
G1 X164.78 Y73.18 E.01271
G1 X166.746 Y75.146 E.08721
G1 X166.666 Y75.599 E.01443
G1 X164.348 Y73.281 E.10283
G1 X164.006 Y73.313 E.01077
G1 X163.835 Y73.301 E.00538
G1 X166.586 Y76.053 E.12206
G1 X166.506 Y76.506 E.01443
G1 X163.159 Y73.159 E.14848
G1 X163.003 Y73.11 E.00513
G1 X162.555 Y72.853 E.0162
G1 X162.167 Y72.511 E.01622
G1 X162.053 Y72.377 E.00552
G1 X161.857 Y72.071 E.0114
G1 X161.743 Y71.841 E.00805
G1 X161.694 Y71.694 E.00486
G1 X155.552 Y65.552 E.27246
G1 X154.883 Y65.417 E.02141
G1 X166.426 Y76.96 E.51205
G1 X166.347 Y77.413 E.01442
G1 X154.215 Y65.282 E.53816
G1 X153.546 Y65.146 E.02141
G1 X166.267 Y77.867 E.56431
G1 X166.187 Y78.32 E.01443
G1 X152.878 Y65.011 E.5904
G1 X152.209 Y64.876 E.02141
G1 X166.107 Y78.774 E.61652
G1 X166.027 Y79.228 E.01446
G1 X151.541 Y64.741 E.64263
G1 X150.872 Y64.606 E.02141
G1 X165.947 Y79.681 E.66874
G1 X165.867 Y80.135 E.01446
G1 X150.203 Y64.471 E.69487
G1 X149.535 Y64.336 E.02138
G1 X165.787 Y80.588 E.72095
G1 X165.707 Y81.042 E.01446
G1 X148.866 Y64.201 E.74708
G1 X148.198 Y64.066 E.02138
G1 X165.627 Y81.495 E.77316
G1 X165.547 Y81.949 E.01446
G1 X147.529 Y63.931 E.79929
G1 X146.861 Y63.796 E.02138
G1 X165.467 Y82.402 E.82537
G1 X165.387 Y82.856 E.01446
G1 X146.192 Y63.661 E.8515
G1 X145.524 Y63.526 E.02138
G1 X165.307 Y83.309 E.87759
G1 X165.227 Y83.763 E.01446
G1 X144.855 Y63.391 E.90372
G1 X144.187 Y63.256 E.02138
G1 X165.147 Y84.216 E.9298
G1 X165.067 Y84.67 E.01446
G1 X143.518 Y63.121 E.95593
G1 X142.85 Y62.986 E.02138
G1 X164.987 Y85.123 E.98201
G1 X164.907 Y85.577 E.01446
G1 X142.181 Y62.851 E1.00814
G1 X141.513 Y62.716 E.02138
G1 X164.827 Y86.03 E1.03422
G1 X164.747 Y86.484 E.01446
G1 X140.844 Y62.581 E1.06035
G1 X140.176 Y62.446 E.02138
G1 X164.667 Y86.938 E1.08646
G1 X164.587 Y87.391 E.01443
G1 X139.507 Y62.311 E1.11257
G1 X138.839 Y62.176 E.02138
G1 X164.507 Y87.845 E1.13867
G1 X164.427 Y88.298 E.01443
G1 X138.17 Y62.041 E1.16478
G1 X137.501 Y61.906 E.02141
G1 X164.347 Y88.752 E1.19091
G1 X164.267 Y89.205 E.01443
G1 X136.833 Y61.771 E1.21699
G1 X136.164 Y61.636 E.02141
G1 X164.187 Y89.659 E1.24312
G1 X164.107 Y90.112 E.01443
G1 X135.496 Y61.501 E1.2692
G1 X134.827 Y61.366 E.02141
G1 X164.027 Y90.566 E1.29533
G1 X163.947 Y91.019 E.01443
G1 X134.159 Y61.231 E1.32142
G1 X133.49 Y61.096 E.02141
G1 X163.867 Y91.473 E1.34754
G1 X163.787 Y91.926 E.01443
G1 X132.822 Y60.961 E1.37363
G1 X132.153 Y60.826 E.02141
G1 X163.708 Y92.38 E1.39978
G1 X163.628 Y92.833 E.01443
G1 X131.485 Y60.691 E1.42586
G1 X130.816 Y60.556 E.02141
G1 X163.548 Y93.287 E1.45199
G1 X163.468 Y93.74 E.01443
G1 X130.148 Y60.421 E1.47807
G1 X129.479 Y60.285 E.02141
G1 X163.388 Y94.194 E1.50423
G1 X163.308 Y94.648 E.01446
G1 X128.811 Y60.15 E1.53033
G1 X128.142 Y60.015 E.02141
G1 X163.228 Y95.101 E1.55644
G1 X163.148 Y95.555 E.01446
G1 X127.474 Y59.88 E1.58254
G1 X126.805 Y59.745 E.02141
G1 X163.068 Y96.008 E1.60865
G1 X162.988 Y96.462 E.01446
G1 X126.136 Y59.61 E1.63478
G1 X125.468 Y59.475 E.02138
G1 X162.908 Y96.915 E1.66086
G1 X162.828 Y97.369 E.01446
G1 X124.799 Y59.34 E1.68699
G1 X124.131 Y59.205 E.02138
G1 X162.748 Y97.822 E1.71308
G1 X162.668 Y98.276 E.01446
G1 X123.462 Y59.07 E1.7392
G1 X122.794 Y58.935 E.02138
G1 X162.588 Y98.729 E1.76529
G1 X162.508 Y99.183 E.01446
G1 X122.125 Y58.8 E1.79142
G1 X121.457 Y58.665 E.02138
G1 X162.428 Y99.636 E1.8175
G1 X162.348 Y100.09 E.01446
G1 X120.788 Y58.53 E1.84363
G1 X120.12 Y58.395 E.02138
G1 X162.268 Y100.543 E1.86971
G1 X162.188 Y100.997 E.01446
G1 X119.451 Y58.26 E1.89584
G1 X118.783 Y58.125 E.02138
G1 X162.108 Y101.45 E1.92193
G1 X162.028 Y101.904 E.01446
G1 X118.114 Y57.99 E1.94805
G1 X117.446 Y57.855 E.02138
G1 X161.948 Y102.358 E1.97416
G1 X161.868 Y102.811 E.01443
G1 X116.777 Y57.72 E2.00027
G1 X116.109 Y57.585 E.02138
G1 X161.788 Y103.265 E2.02637
G1 X161.708 Y103.718 E.01443
