; generated by PrusaSlicer 2.6.1 on 2023-11-11 at 17:08:44 UTC

; 

; external perimeters extrusion width = 0.42mm
; perimeters extrusion width = 0.44mm
; infill extrusion width = 0.44mm
; solid infill extrusion width = 0.44mm
; top infill extrusion width = 0.40mm
; first layer extrusion width = 0.42mm

M201 X500 Y500 Z100 E5000 ; sets maximum accelerations, mm/sec^2
M203 X500 Y500 Z10 E60 ; sets maximum feedrates, mm / sec
M204 P500 R1000 T500 ; sets acceleration (P, T) and retract acceleration (R), mm/sec^2
M205 X8.00 Y8.00 Z0.40 E5.00 ; sets the jerk limits, mm/sec
M205 S0 T0 ; sets the minimum extruding and travel feed rate, mm/sec
;TYPE:Custom
G90 ; use absolute coordinates
M83 ; extruder relative mode
M104 S150 ; set temporary nozzle temp to prevent oozing during homing and auto bed leveling
M140 S100 ; set final bed temp
G4 S30 ; allow partial nozzle warmup
G28 ; home all axis
G29 ; auto bed levelling
G1 Z50 F240
G1 X2.0 Y10 F3000
M104 S250 ; set final nozzle temp
M190 S100 ; wait for bed temp to stabilize
M109 S250 ; wait for nozzle temp to stabilize
G1 Z0.28 F240
G92 E0
G1 X2.0 Y140 E10 F1500 ; prime the nozzle
G1 X2.3 Y140 F5000
G92 E0
G1 X2.3 Y10 E10 F1200 ; prime the nozzle
G92 E0
G21 ; set units to millimeters
G90 ; use absolute coordinates
M83 ; use relative distances for extrusion
; Filament gcode
M107
;LAYER_CHANGE
;Z:0.2
;HEIGHT:0.2
;BEFORE_LAYER_CHANGE
G92 E0
;0.2


G1 E-5 F3600
G1 Z.2 F9000
;AFTER_LAYER_CHANGE
;0.2
G1 X25.887 Y22.999
G1 E5 F2400
M204 P500
;TYPE:Skirt/Brim
;WIDTH:0.42
G1 F1200
G1 X26.75 Y22.196 E.03696
G1 X27.708 Y21.505 E.03704
G1 X28.741 Y20.943 E.03687
G1 X29.84 Y20.514 E.03699
G1 X30.983 Y20.225 E.03697
G1 X32.069 Y20.085 E.03433
G1 X153.236 Y14.869 E3.80262
G1 X154.835 Y15.195 E.05117
G1 X156.204 Y16.39 E.05698
G1 X211.125 Y100.037 E3.13749
G1 X211.641 Y100.982 E.03376
G1 X212.081 Y102.072 E.03686
G1 X212.455 Y103.635 E.05039
G1 X212.555 Y104.806 E.03685
G1 X212.51 Y105.982 E.0369
G1 X212.316 Y107.147 E.03703
G1 X212.054 Y108.078 E.03032
G1 X178.813 Y204.869 E3.2088
G1 X178.449 Y205.764 E.03029
G1 X177.886 Y206.802 E.03702
G1 X176.925 Y208.079 E.05011
G1 X176.083 Y208.909 E.03707
G1 X175.145 Y209.624 E.03698
G1 X174.13 Y210.213 E.03679
G1 X173.04 Y210.675 E.03712
G1 X171.908 Y210.994 E.03688
G1 X169.99 Y211.205 E.0605
G1 X168.812 Y211.138 E.037
G1 X51.755 Y192.705 E3.71547
G1 X50.253 Y192.069 E.05114
G1 X49.168 Y190.679 E.05529
G1 X25.908 Y135.4 E1.88042
G1 X25.583 Y134.48 E.03059
G1 X25.314 Y133.331 E.037
G1 X25.181 Y131.946 E.04363
G1 X23.313 Y29.624 E3.20877
G1 X23.395 Y28.234 E.04366
G1 X23.621 Y27.079 E.0369
G1 X23.989 Y25.962 E.03687
G1 X24.496 Y24.896 E.03701
G1 X25.134 Y23.901 E.03706
G1 X25.849 Y23.045 E.03497
; printing object bottom id:0 copy 0
G1 E-3.5 F3600
;WIPE_START
G1 F7200
G1 X26.75 Y22.196 E-.58804
G1 X27.708 Y21.505 E-.56107
G1 X28.357 Y21.152 E-.35089
;WIPE_END
G1 X201.73 Y106.341 F9000
G1 E5 F2400
;TYPE:Perimeter
;WIDTH:0.460313
G1 F1200
G1 X201.739 Y106.292 E.00173
;WIDTH:0.500626
G1 X201.771 Y106.13 E.00628
;WIDTH:0.540939
G1 X201.803 Y105.968 E.00684
;WIDTH:0.566056
G1 X201.784 Y105.859 E.00481
;WIDTH:0.591173
G1 X201.764 Y105.75 E.00505
G1 X201.666 Y105.659 E.0061
;WIDTH:0.54838
G1 X201.567 Y105.567 E.00568
;WIDTH:0.505586
G1 X201.468 Y105.476 E.00517
;WIDTH:0.462793
G1 X201.37 Y105.384 E.00469
;WIDTH:0.419999
G1 X201.144 Y105.264 E.00802
G1 X89.287 Y63.725 E3.74122
G1 X89.008 Y63.64 E.00914
G1 X68.814 Y60.458 E.64098
;WIDTH:0.437732
G1 X67.734 Y60.287 E.0359
;WIDTH:0.463759
G1 X67.16 Y60.175 E.02046
G1 X66.536 Y60.099 E.022
;WIDTH:0.419999
G1 X47.019 Y57.024 E.61949
G1 X47.019 Y51.102 E.18568
G1 X47.46 Y51.149 E.01391
G1 X67.816 Y54.357 E.64612
;WIDTH:0.42989
G1 X69.06 Y54.558 E.04055
;WIDTH:0.429578
G1 X69.728 Y54.658 E.02172
;WIDTH:0.419999
G1 X90.01 Y57.854 E.64377
G1 X90.659 Y57.988 E.02078
G1 X91.297 Y58.208 E.02116
G1 X204.395 Y100.207 E3.78271
G1 X205.204 Y100.525 E.02725
G1 X205.665 Y100.758 E.0162
G1 X206.176 Y101.1 E.01928
G1 X206.645 Y101.509 E.01951
G1 X207.054 Y101.964 E.01918
G1 X207.405 Y102.471 E.01933
G1 X207.706 Y103.06 E.02074
G1 X207.938 Y103.726 E.02211
G1 X208.055 Y104.261 E.01717
G1 X208.113 Y104.826 E.01781
G1 X208.103 Y105.421 E.01866
G1 X208.016 Y106.036 E.01947
G1 X207.842 Y106.667 E.02052
G1 X174.623 Y203.395 E3.2067
G1 X174.373 Y203.999 E.0205
G1 X174.064 Y204.539 E.01951
G1 X173.69 Y205.035 E.01948
G1 X173.257 Y205.481 E.01949
G1 X172.773 Y205.868 E.01943
G1 X172.242 Y206.192 E.0195
G1 X171.676 Y206.448 E.01948
G1 X171.082 Y206.63 E.01948
G1 X170.469 Y206.736 E.01951
G1 X169.849 Y206.765 E.01946
G1 X169.204 Y206.714 E.02029
G1 X76.846 Y192.162 E2.93154
;WIDTH:0.429631
G1 X76.18 Y192.052 E.02171
;WIDTH:0.429975
G1 X74.934 Y191.861 E.04057
;WIDTH:0.419999
G1 X59.332 Y189.403 E.49522
G1 X59.771 Y189.22 E.01491
G1 X60.045 Y188.691 E.01868
G1 X60.832 Y183.695 E.15858
G1 X75.848 Y186.061 E.47662
;WIDTH:0.429913
G1 X77.092 Y186.262 E.04055
;WIDTH:0.429598
G1 X77.76 Y186.362 E.02172
;WIDTH:0.419999
G1 X168.229 Y200.616 E2.87158
G1 X168.76 Y200.661 E.01671
G1 X168.391 Y201.012 E.01597
G1 X168.049 Y201.528 E.01941
G1 X167.861 Y202.069 E.01796
G1 X167.791 Y202.654 E.01847
G1 X167.861 Y203.269 E.01941
G1 X168.065 Y203.805 E.01798
G1 X168.388 Y204.298 E.01848
G1 X168.836 Y204.723 E.01936
G1 X169.337 Y205.003 E.018
G1 X169.952 Y205.179 E.02006
G1 X170.518 Y205.211 E.01777
G1 X171.081 Y205.103 E.01797
G1 X171.555 Y204.912 E.01602
G1 X172.001 Y204.617 E.01677
G1 X172.365 Y204.225 E.01677
G1 X172.675 Y203.71 E.01885
G1 X172.853 Y203.178 E.01759
G1 X172.901 Y202.561 E.0194
G1 X172.81 Y201.979 E.01847
G1 X172.602 Y201.445 E.01797
G1 X172.242 Y200.942 E.01939
G1 X171.798 Y200.555 E.01847
G1 X171.295 Y200.279 E.01799
G1 X170.696 Y200.125 E.01939
G1 X170.107 Y200.114 E.01847
;WIDTH:0.427706
G1 X169.476 Y200.24 E.02059
G1 X169.568 Y200.039 E.00707
;WIDTH:0.419999
G1 X201.708 Y106.454 E3.10251
;WIDTH:0.460313
G1 X201.718 Y106.4 E.00191
G1 X201.357 Y106.246 F9000
;WIDTH:0.419999
G1 F1200
G1 X201.372 Y106.046 E.00629
G1 X201.257 Y105.793 E.00871
G1 X201.013 Y105.617 E.00943
G1 X88.947 Y64.012 E3.74808
G1 X46.641 Y57.346 E1.34284
G1 X46.641 Y50.704 E.20825
G1 X46.819 Y50.701 E.00558
G1 X47.51 Y50.775 E.02179
G1 X90.078 Y57.483 E1.35116
G1 X90.759 Y57.624 E.02181
G1 X91.424 Y57.853 E.02205
G1 X204.902 Y99.994 E3.79543
G1 X205.37 Y100.187 E.01587
G1 X205.873 Y100.443 E.0177
G1 X206.421 Y100.813 E.02073
G1 X206.924 Y101.255 E.021
G1 X207.449 Y101.871 E.02538
G1 X207.738 Y102.295 E.01609
G1 X208.059 Y102.926 E.0222
G1 X208.304 Y103.638 E.02361
G1 X208.43 Y104.221 E.0187
G1 X208.49 Y104.832 E.01925
G1 X208.48 Y105.451 E.01941
G1 X208.386 Y106.113 E.02096
G1 X208.203 Y106.779 E.02166
G1 X174.976 Y203.528 E3.2074
G1 X174.712 Y204.165 E.02162
G1 X174.379 Y204.746 E.021
G1 X173.977 Y205.281 E.02098
G1 X173.511 Y205.761 E.02098
G1 X172.99 Y206.178 E.02092
G1 X172.419 Y206.526 E.02097
G1 X171.809 Y206.801 E.02098
G1 X171.17 Y206.997 E.02096
G1 X170.511 Y207.112 E.02097
G1 X169.843 Y207.143 E.02097
G1 X169.16 Y207.089 E.02148
G1 X59.796 Y189.858 E3.47133
;WIDTH:0.461455
G1 X59.51 Y189.791 E.01022
;WIDTH:0.502911
G1 X59.224 Y189.725 E.01123
;WIDTH:0.544366
G1 X58.938 Y189.659 E.01224
G1 X53.137 Y188.745 E.24486
G1 X53.215 Y188.25 E.02089
G1 X59.016 Y189.164 E.24486
;WIDTH:0.551024
G1 X59.125 Y189.175 E.00463
G1 X59.253 Y189.1 E.00627
;WIDTH:0.507349
G1 X59.38 Y189.025 E.0057
;WIDTH:0.463674
G1 X59.508 Y188.95 E.00519
;WIDTH:0.419999
G1 X59.673 Y188.632 E.01123
G1 X60.518 Y183.264 E.17038
G1 X168.287 Y200.244 E3.4207
;WIDTH:0.463292
G1 X168.491 Y200.27 E.00719
;WIDTH:0.506585
G1 X168.695 Y200.296 E.00793
;WIDTH:0.549878
G1 X168.899 Y200.322 E.00867
;WIDTH:0.567421
G1 X169.141 Y200.171 E.01244
G1 X169.164 Y200.086 E.00384
;WIDTH:0.518281
G1 X169.188 Y200.001 E.00349
;WIDTH:0.46914
G1 X169.211 Y199.916 E.00312
;WIDTH:0.419999
G1 X201.353 Y106.305 E3.1033
G1 X200.994 Y106.209 F9000
;TYPE:External perimeter
G1 F1200
G1 X200.99 Y106.075 E.0042
G1 X200.882 Y105.971 E.0047
G1 X88.886 Y64.384 E3.74583
G1 X46.523 Y57.709 E1.34465
G1 X46.264 Y57.717 E.00812
G1 X46.264 Y50.335 E.23146
G1 X46.835 Y50.323 E.01791
G1 X47.559 Y50.402 E.02284
G1 X90.146 Y57.112 E1.35176
G1 X90.859 Y57.26 E.02283
G1 X91.551 Y57.497 E.02293
G1 X205.356 Y99.76 E3.80638
G1 X206.003 Y100.077 E.02259
G1 X206.601 Y100.471 E.02245
G1 X207.083 Y100.884 E.0199
G1 X207.415 Y101.235 E.01515
G1 X207.758 Y101.654 E.01698
G1 X208.072 Y102.119 E.01759
G1 X208.412 Y102.793 E.02367
G1 X208.671 Y103.551 E.02512
G1 X208.805 Y104.18 E.02016
G1 X208.867 Y104.838 E.02072
G1 X208.857 Y105.481 E.02016
G1 X208.756 Y106.19 E.02245
G1 X208.563 Y106.89 E.02277
G1 X175.329 Y203.662 E3.20816
G1 X175.051 Y204.332 E.02274
G1 X174.695 Y204.954 E.02247
G1 X174.264 Y205.526 E.02246
G1 X173.766 Y206.04 E.02244
G1 X173.207 Y206.487 E.02244
G1 X172.595 Y206.86 E.02247
G1 X171.943 Y207.155 E.02244
G1 X171.257 Y207.365 E.02249
G1 X170.552 Y207.487 E.02243
G1 X169.837 Y207.521 E.02244
G1 X169.115 Y207.464 E.02271
G1 X52.635 Y189.111 E3.6972
G1 X52.85 Y187.748 E.04326
G1 X59.084 Y188.73 E.19787
G1 X59.245 Y188.679 E.0053
G1 X59.3 Y188.573 E.00374
G1 X60.205 Y182.833 E.1822
G1 X167.98 Y199.814 E3.42089
G1 X168.743 Y199.909 E.02411
G1 X168.854 Y199.794 E.00501
G1 X200.975 Y106.265 E3.10065
G1 X201.116 Y106.152 F9000
G1 E-3.5 F3600
;WIPE_START
G1 F7200
G1 X200.99 Y106.075 E-.09053
G1 X200.882 Y105.971 E-.07122
G1 X198.241 Y104.99 E-1.33825
;WIPE_END
G1 X202.31 Y103.776 F9000
G1 E5 F2400
;TYPE:Perimeter
G1 F1200
G1 X202.428 Y103.437 E.01125
G1 X202.769 Y102.922 E.01937
G1 X203.199 Y102.518 E.0185
G1 X203.691 Y102.224 E.01797
G1 X204.284 Y102.049 E.01939
G1 X204.872 Y102.016 E.01847
G1 X205.438 Y102.107 E.01797
G1 X205.999 Y102.351 E.01918
G1 X206.477 Y102.707 E.01869
G1 X206.852 Y103.141 E.01798
G1 X207.128 Y103.694 E.01938
G1 X207.262 Y104.268 E.01848
G1 X207.271 Y104.809 E.01696
G1 X207.183 Y105.25 E.0141
G1 X207.026 Y105.669 E.01403
G1 X206.772 Y106.1 E.01569
G1 X206.31 Y106.576 E.0208
G1 X205.82 Y106.874 E.01798
G1 X205.263 Y107.065 E.01846
G1 X204.648 Y107.125 E.01937
G1 X204.081 Y107.038 E.01799
G1 X203.531 Y106.826 E.01848
G1 X203.021 Y106.476 E.01939
G1 X202.643 Y106.045 E.01797
;WIDTH:0.463829
G1 X202.563 Y105.952 E.00429
;WIDTH:0.507658
G1 X202.483 Y105.86 E.00471
;WIDTH:0.551488
G1 X202.403 Y105.767 E.00519
;WIDTH:0.595317
G1 X202.323 Y105.674 E.00563
G1 X202.301 Y105.551 E.00574
;WIDTH:0.554416
G1 X202.278 Y105.427 E.00536
;WIDTH:0.513514
G1 X202.256 Y105.304 E.00489
;WIDTH:0.472612
G1 X202.234 Y105.18 E.0045
;WIDTH:0.43171
G1 X202.17 Y104.564 E.02002
;WIDTH:0.419999
G1 X202.168 Y104.532 E.00101
G1 X202.239 Y103.979 E.01748
G1 X202.29 Y103.833 E.00485
G1 X202.599 Y104.196 F9000
G1 F1200
G1 X202.644 Y103.92 E.00877
G1 X202.851 Y103.444 E.01627
G1 X203.155 Y103.056 E.01545
G1 X203.546 Y102.733 E.0159
G1 X204.011 Y102.502 E.01628
G1 X204.493 Y102.4 E.01545
G1 X205.001 Y102.404 E.01593
G1 X205.505 Y102.525 E.01625
G1 X205.939 Y102.757 E.01543
G1 X206.326 Y103.087 E.01595
G1 X206.627 Y103.488 E.01572
G1 X206.818 Y103.961 E.01599
G1 X206.902 Y104.462 E.01593
G1 X206.87 Y104.98 E.01627
G1 X206.696 Y105.487 E.01681
G1 X206.46 Y105.885 E.01451
G1 X206.103 Y106.262 E.01628
G1 X205.685 Y106.522 E.01543
G1 X205.206 Y106.692 E.01594
G1 X204.69 Y106.75 E.01628
G1 X204.203 Y106.681 E.01542
G1 X203.727 Y106.504 E.01592
G1 X203.295 Y106.217 E.01626
G1 X202.966 Y105.85 E.01545
G1 X202.715 Y105.409 E.01591
G1 X202.568 Y104.911 E.01628
G1 X202.545 Y104.522 E.01222
G1 X202.589 Y104.255 E.00848
G1 X202.922 Y104.512 F9000
;TYPE:External perimeter
G1 F1200
G1 X202.995 Y104.057 E.01445
G1 X203.154 Y103.668 E.01318
G1 X203.402 Y103.341 E.01287
G1 X203.727 Y103.064 E.01339
G1 X204.099 Y102.868 E.01318
G1 X204.5 Y102.777 E.01289
G1 X204.987 Y102.786 E.01527
G1 X205.337 Y102.863 E.01124
G1 X205.702 Y103.05 E.01286
G1 X206.101 Y103.41 E.01685
G1 X206.288 Y103.654 E.00964
G1 X206.448 Y104.033 E.0129
G1 X206.525 Y104.453 E.01339
G1 X206.509 Y104.872 E.01315
G1 X206.366 Y105.304 E.01427
G1 X206.177 Y105.636 E.01198
G1 X205.895 Y105.947 E.01316
G1 X205.549 Y106.17 E.01291
G1 X205.15 Y106.319 E.01335
G1 X204.733 Y106.376 E.0132
G1 X204.326 Y106.324 E.01286
G1 X203.924 Y106.182 E.01337
G1 X203.568 Y105.957 E.0132
G1 X203.289 Y105.656 E.01287
G1 X203.073 Y105.288 E.01338
G1 X202.945 Y104.888 E.01317
G1 X202.926 Y104.572 E.00993
G1 X202.584 Y104.298 F9000
G1 E-3.5 F3600
;WIPE_START
G1 F7200
G1 X202.995 Y104.057 E-.24681
G1 X203.154 Y103.668 E-.19961
G1 X203.402 Y103.341 E-.19494
G1 X203.727 Y103.064 E-.20284
G1 X204.099 Y102.868 E-.19973
G1 X204.5 Y102.777 E-.19532
G1 X204.987 Y102.786 E-.23136
G1 X205.047 Y102.799 E-.02939
;WIPE_END
G1 X170.385 Y204.833 F9000
G1 E5 F2400
;TYPE:Perimeter
G1 F1200
G1 X170.312 Y204.841 E.0023
G1 X169.825 Y204.772 E.01542
G1 X169.349 Y204.594 E.01593
G1 X168.916 Y204.307 E.01629
G1 X168.587 Y203.941 E.01543
G1 X168.337 Y203.499 E.01592
G1 X168.19 Y203.002 E.01625
G1 X168.173 Y202.51 E.01544
G1 X168.265 Y202.01 E.01594
G1 X168.473 Y201.534 E.01629
G1 X168.823 Y201.107 E.01731
;WIDTH:0.462569
G1 X168.927 Y200.994 E.00536
;WIDTH:0.505139
G1 X169.032 Y200.881 E.00593
;WIDTH:0.547708
G1 X169.137 Y200.768 E.00647
G1 X169.218 Y200.725 E.00385
;WIDTH:0.567421
G1 X169.458 Y200.581 E.01221
G1 X169.569 Y200.572 E.00486
;WIDTH:0.518281
G1 X169.68 Y200.563 E.0044
;WIDTH:0.46914
G1 X169.791 Y200.554 E.00395
;WIDTH:0.419999
G1 X170.114 Y200.491 E.01032
G1 X170.622 Y200.495 E.01593
G1 X171.127 Y200.616 E.01628
G1 X171.561 Y200.848 E.01543
G1 X171.947 Y201.177 E.0159
G1 X172.256 Y201.595 E.0163
G1 X172.44 Y202.051 E.01542
G1 X172.524 Y202.552 E.01593
G1 X172.492 Y203.07 E.01627
G1 X172.339 Y203.538 E.01544
G1 X172.082 Y203.976 E.01592
G1 X171.729 Y204.349 E.0161
G1 X171.306 Y204.612 E.01562
G1 X170.828 Y204.782 E.01591
G1 X170.445 Y204.826 E.01209
G1 X170.355 Y204.466 F9000
;TYPE:External perimeter
G1 F1200
G1 X169.821 Y204.372 E.017
G1 X169.545 Y204.272 E.0092
G1 X169.19 Y204.048 E.01316
G1 X168.91 Y203.747 E.01289
G1 X168.694 Y203.379 E.01338
G1 X168.566 Y202.979 E.01317
G1 X168.546 Y202.568 E.0129
G1 X168.617 Y202.148 E.01336
G1 X168.776 Y201.759 E.01318
G1 X169.07 Y201.391 E.01477
G1 X169.429 Y201.111 E.01427
G1 X169.72 Y200.959 E.01029
G1 X170.121 Y200.868 E.01289
G1 X170.548 Y200.864 E.01339
G1 X170.958 Y200.953 E.01315
G1 X171.324 Y201.141 E.0129
G1 X171.653 Y201.413 E.01338
G1 X171.91 Y201.745 E.01316
G1 X172.069 Y202.124 E.01289
G1 X172.147 Y202.543 E.01336
G1 X172.13 Y202.963 E.01318
G1 X172.009 Y203.356 E.01289
G1 X171.799 Y203.727 E.01337
G1 X171.516 Y204.038 E.01318
G1 X171.171 Y204.261 E.01288
G1 X170.684 Y204.423 E.01609
G1 X170.414 Y204.458 E.00854
G1 X170.143 Y204.806 F9000
G1 E-3.5 F3600
;WIPE_START
G1 F7200
G1 X169.821 Y204.372 E-.28462
G1 X169.545 Y204.272 E-.13944
G1 X169.19 Y204.048 E-.19939
G1 X168.91 Y203.747 E-.19527
G1 X168.694 Y203.379 E-.20269
G1 X168.566 Y202.979 E-.19949
G1 X168.546 Y202.568 E-.19546
G1 X168.575 Y202.394 E-.08364
;WIPE_END
G1 X75.376 Y186.738 F9000
G1 E5 F2400
;TYPE:Perimeter
G1 F1200
G1 X75.508 Y186.674 E.0046
;WIDTH:0.420306
G1 X76.07 Y186.563 E.01798
;WIDTH:0.421331
G1 X76.621 Y186.566 E.01734
;WIDTH:0.429598
G1 X77.024 Y186.642 E.01319
G1 X77.59 Y186.893 E.01991
;WIDTH:0.419999
G1 X78.061 Y187.246 E.01846
G1 X78.436 Y187.68 E.01798
G1 X78.712 Y188.234 E.01941
G1 X78.847 Y188.807 E.01846
G1 X78.855 Y189.38 E.01797
G1 X78.711 Y189.982 E.01941
G1 X78.445 Y190.508 E.01848
G1 X78.083 Y190.952 E.01796
G1 X77.586 Y191.32 E.01939
G1 X77.044 Y191.552 E.01849
;WIDTH:0.430867
G1 X76.482 Y191.665 E.01849
G1 X76.232 Y191.669 E.00807
;WIDTH:0.429975
G1 X75.664 Y191.582 E.01849
G1 X75.116 Y191.365 E.01897
;WIDTH:0.419999
G1 X74.606 Y191.016 E.01938
G1 X74.227 Y190.585 E.018
G1 X73.943 Y190.069 E.01847
G1 X73.777 Y189.473 E.0194
G1 X73.764 Y188.9 E.01797
G1 X73.877 Y188.322 E.01847
G1 X74.133 Y187.759 E.01939
G1 X74.492 Y187.312 E.01798
G1 X74.95 Y186.942 E.01846
G1 X75.322 Y186.763 E.01294
G1 X75.526 Y187.076 F9000
G1 F1200
G1 X75.596 Y187.041 E.00245
G1 X76.077 Y186.94 E.01541
